www/assets/icons/border_all.svg

<svg xmlns="http://www.w3.org/2000/svg" width="24" height="24" viewBox="0 0 24 24" fill='currentColor'><path d="M3 3v18h18V3zm8 16H5v-6h6zm0-8H5V5h6zm8 8h-6v-6h6zm0-8h-6V5h6z"/></svg>

<svg width="24" height="24" viewBox="0 0 24 24" xmlns="http://www.w3.org/2000/svg" fill='currentColor'><path d="M3 3V21H21V3H3ZM11 19H5V13H11V19ZM11 11H5V5H11V11ZM19 19H13V13H19V19ZM19 11H13V5H19V11Z"/></svg>
